X: 1
T: Et barn er født i Betlehem [A]
O: Danmark
Z: John Chambers <jc:trillian.mit.edu>
M: C
L: 1/8
K: A
E2 \
| "A"A2 E2 A2 "E7"B2 \
| "A"cd "E7"cB "A"A4 \
| "A"e4 "E7"d4 \
| "A"c6 "D"d2 \
| "C#7"c2 B2 A2 G2 |
| "F#m"B2 A2 "D"F4- \
| F2 "E"E2 "A"A2 "E"B2 \
| "A"c6 c2 \
| A4 "E7"G4 \
| "A"A6 |]
